!!!OTL: Ech hun e Freier, S. 30
!!!id: L0022V
**kern
*clefG2
*k[b-]
*F:
{8c
=1
8f
8f
8a
8f
=2
8cc
8cc
8cc}
=3
{8ff
=4
8cc
8a
8b-
16g
16g
=5
8a
8f
8f}
=6
{16a
16a
=7
16g
16g
16g
16g
8g
16b-
16b-
=8
16a
16f
16f
16f
8f}
=9
{8ff
=10
8cc
8a
8b-
16g
16g
=11
8a
8f
8f}
==
*-
!!!minrhy: 16
!!!meters: 2/4 ]  ZZ[4
!!!cut: Ech hun e Freier, S. 30
!!!reg: Luxemburg
!!!trd: Die Luxemburger Volkslieder &auml;lterer Zeit, Luxemburg 1904 posth.
!!!rhy1: X_  X_X_X_X_  X_X_X_
!!!rhy2: X_  X_X_X_XX  X_X_X_
!!!key: L0022V 16  F 2/4 ]  ZZ[4
!!!mod: PENTATONIK DUR ?]  AMBITUS[11
!!!kad: 5111
!!!akz: 15_53_23_53_
!!!fot: 'a__b__c__b__
!!!for: 'a__b__c__b__
!!!fok: '/__\__\__\__
!! PHRAS[AUFTAKTIG]
!!!fkt: ??, Liebeslied
!!!bem: nahezu mit Sign 0021 identisch
!! FONTAINE, Ed.:
!! PR[45] 2K[0] 2G[15] 3K[0] 3G[0] 4A[5] 4Ü[0] 5A[0] 6K[0] 6G[5]
!! 7K[0] 7G[0] 8A[0] MEHR[0] SI[25] ABS[20] SR[15] SP[10]
!! ST[6] 2k[0] 2g[25] 3k[0] 3g[0] 4d[5] 4ü[0] 5d[0] 6k[0] 6g[0]
!! 7k[0] 7g[0] 8d[0] mehr[0] si[30] dm[-5] sr[25] sp[5]
!! 1F[29] 2F[48] 3F[19] 4F[0] LF[0] 2P[0] 3P[5] 4P[0] TRI[0] DF[4] AB[21]
!! TF[0] U3K[0] U3[0] U4[0] U4Ü[0] U5[0] U6K[0] U6[0] U7K[0] U7[0]
!! N1[0] N2K[0] N2[0] N3K[0] N3[0] N4[0] N4Ü[0] N5[29] N6K[0] N6[33]
!!!n7k: 0] N7[0] O1[14] O2K[0] O2[10] O3K[0] O3[14] HÖ[0
!!!RNB: symbol: &auml;      = a umlaut  (UTF-8: Å„)
